X:1
T:Flora piu vaga
T:Flora piu vaga
T:Gio.Girolamo Kapsperger
C:Gio.Girolamo Kapsperger
%%score [ 1 2 ] { ( 3 5 ) | 4 }
L:1/8
Q:1/4=120
M:4/4
K:F
V:1 treble-8 nm="Tenor 1" snm="T 1"
V:2 treble-8 nm="Tenor 2" snm="T 2"
V:3 treble nm="BC" snm="BC"
V:5 treble 
V:4 bass 
V:1
 c4 c2 f2 | B2 c2 d4 | d3 B B3 c | c3 B A4 | G6 d2 | d2 e2 cBcd | edfe d4 | c3 c dc BA | BA GF G4 | %9
w: Flo- ra piu|va- ga'e bel-|la, del sol e|og- ni stel-|la, e|piu se- re- * * *|n'an- * * * co-|ra de la _ nas- *|cen- * t'au- * ro-|
w: Ma si tal'|or ti'of- fen-|de, la lu- c'e'l|sol che splen-|de, e|sde- gno- set- * * *|ta _ _ _ vuo-|i ce- la- * re'i _|ra- * gi _ tuo-|
w: E si cru-|del mo- stras-|si, a'i spir- ti'u-|ni- ti'e las-|si, del|tuo fe- de- * * *|le'a- * * * man-|te la fer- * ma _|fe _ co- * stan-|
 F3 c dc BA | BA GF G4 | F8 |:[M:3/2] A4 B4 c4 | d2 c2 d2 e2 f4 | _e4 c6 B2 | B8 B4 | d4 d4 e4 | %17
w: ra, de la _ nas- *|cen- * t'au- * ro-|ra.|Per- che non|vuo- * * * i|co'i sguar- di|tuo- i|ren- der la|
w: i, ce- la- * re'i _|rag- * gi _ tu-|oi.|Me- no- an-|cor _ _ _ cie-|co, nel' aer|cie- co|qual or tu|
w: te, la fer- * ma _|fe _ co- * stan-|te.|El suo gran|fuo- * * * co,|smor- zas- se'un|po- co|con quel gro-|
 c4 c4 c4 | c8 d4 | =B8 B4 |[M:4/4] g4 d3 d | e4 c4 | z8 | z2 AB c4- | c2 BA GGGA | B2 FG A3 G | %26
w: vi- ta bel-|ta gra-|di- ta,|a chi si|mo- re,||mil- le vol-|* te cor mi- o, mil- le|vol- te cor mi- o,|
w: spreg- gi, su|l'al- ti|seg- gi,|il tuo va|flo- re,||ch'al- tra lu-|* ce non bra- ma, ch'al- tra|lu- ce non bra- ma-|
w: a- re sen-|zi men-|ti- re,|d'A- mor s'in-|gan- ni,||o fe- li-|* ce col- lu- i, o fe-|li- ce col- lu- i,|
 c6 Bc | G8 | G2 c4 Bc | G8 | F8 :| %31
w: mil- le'a tutt'|ho-|re mil le'a tutt'|ho-|re.|
w: al- tro splen-|do-|re, al- tro splen-|do-|re.|
w: mil- le, e|mil-|le, e mil- le|an-|ni.|
V:2
 A4 A2 B2 | G2 A2 B4 | B3 G G3 E | ^F3 G G2 F2 | G6 =B2 | =B2 c2 AGAB | cBdc c2 =B2 | c3 A BA GF | %8
w: Flo- ra piu|va- ga'e bel-|la, del sol e|og- ni stel- *|la e|piu se- re- * * *|n'an- * * * co- *|ra de la _ nas- *|
w: si tal' or|ti'of- fen- de,|la lu- c'e'l sol|che splen- de, *|e sd-|gno set- ta * * *|vuo- _ _ _ i *|ce- la- re'i * ra- _|
w: E si cru-|del mo- stras-|si, a'i spir- ti'u-|ni- ti'e las- *|si, del|tuo fe- de- * * *|le'a- * * * man- *|te la fer- * ma _|
 GF ED (F2 E2) | F3 A BA GF | GF ED (F2 E2) | F8 |:[M:3/2] F4 G4 A4 | B2 A2 B2 c2 d4 | G4 A6 B2 | %15
w: cen- * t'au- * ro- *|ra, de la _ nas- *|cen- * t'au- * ro- *|ra.|Per- che non|vuo- * * * i|co'i sguar- di|
w: gi * tuo- _ i, *|ce- la- re'i * rag- _|gi * tu- _ oi. *|Me-|no an- cor|cie- _ _ _ co,|nel' aer cie-|
w: fe _ co- * stan- *|te, le fer- * ma _|fe _ co- * stan- *|te.|El suo gran|fuo- * * * co,|smor- zas- se'un|
 B8 B4 | =B4 B4 c4 | A4 A4 A4 | A8 ^F4 | G8 G4 |[M:4/4] z8 | z4 c4 | c4 FG A2 | F6 FG | %24
w: tuo- i|ren- der la|vi- ta bel-|ta gra-|di- ta,||mo-|re, mil- le vol-|te, mil- le|
w: co qual|or tu speg-|gi, su l'al-|ti seg-|gi, flo-||re,|ch'al- tra lu- ce,|ch'al- tra lu-|
w: po- co|con quel gro-|a- re sen-|zi men-|ti- re,||d'A-|mor s'in- * gan-|ni, o fe-|
 A2 GF E2 E2 | z2 DE F2 CD | E2 E2 A4 | G3 A E4 | E2 G4 GA | E2 F4 E2 | F8 :| %31
w: vol- te cor mi- o,|mil- le vol- te cor|mi- o, mil-|le'a tutt' ho-|re, mil- le'a tutt'|ho- * *|re.|
w: ce non bra- ma, ch'al-|tra lu- ce non bra-|ma, al- tro-|splen- do- re,|al- tro splen- do-|re. * *||
w: li- ce col- lu- i,|o fe- li- ce col-|lu- i, mil-|le, e mil-|le, e mil- le|an- * *|ni.|
V:3
 [FAc]6 [FAd]2 | [GB]2 [G_e]2 [Fd]4 | [DF]3 [GB] [GB]3 [Gc] | A2 c2 d4 | [DG=B]8 | x8 | G2 c4 =B2 | %7
 [EGc]4 [Fd]4 | A4 G4 | [FAc]4 [DF]4 | A4 G4 | [CFA]8 |:[M:3/2] [Ac]4 [GB]4 [Gc]4 | [Fd]12 | %14
 [GB]4 [Ac]6 [Fd]2 | [DFB]12 | [=Bd]8 [Ge]4 | [Ac]12 | [Ac]8 [^FA]4 | [D=B]12 |[M:4/4] [D=B]8 | %21
 [EGc]8 | [EG]4 [Ac]4 | [CA]8 | [CA]4 [EG]4 | [DF]4 [FA]2 [Ec]2 | [EG]4 [EA]4 | [EG]8 | %28
 [EG]4 [EA]4 | [Gc]8 | [CFA]8 :| %31
V:4
 F,4 F,2 D,2 | _E,2 C,2 B,,4 | B,,3 _E, E,3 C, | D,8 | G,,8 | G,2 C,2 F,4 | C,4 G,4 | C,4 B,,4 | %8
 D,4 C,4 | F,,4 B,,4 | D,4 C,4 | F,,8 |:[M:3/2] F,4 _E,4 C,4 | B,,8 B,,4 | _E,4 F,6 B,,2 | %15
 B,,8 B,,4 | G,,4 G,,4 C,4 | F,,4 F,,4 F,,4 | F,8 D,4 | G,,8 G,,4 |[M:4/4] G,,8 | C,8 | C,4 F,4 | %23
 F,8 | F,,4 C,4 | B,,4 F,,2 C,2 | C,8 | C,8 | C,8 | C,8 | F,,8 :| %31
V:5
 x8 | x8 | x8 | A2 G4 ^F2 | x8 | [=Bd]2 [Ec]2 [Ac]4 | E4 D4 | x8 | F6 E2 | x8 | F6 E2 | x8 |: %12
[M:3/2] x12 | x12 | x12 | x12 | x12 | x12 | x12 | x12 |[M:4/4] x8 | x8 | x8 | x8 | x8 | x8 | x8 | %27
 x8 | x8 | E2 F4 E2 | x8 :| %31

